**kern	**kern	**dynam
*part1	*part1	*part1
*staff2	*staff1	*
*I"Piano	*	*
*clefF4	*clefG2	*
*k[b-e-a-]	*k[b-e-a-]	*
=1	=1	=1
4EE-	4G-X) 4e-	.
*^	*	*
[8B-	(8E-	(8g-X	p
=	=	=	=
4.B-]	8.D-XL	8.fL	<
.	16E-K	16g-XK	.
.	8CJ)	8e-J)	.
=	=	=	=
(8.FL	4.BB-	(8.d-XL	[ mp
16GnK	.	16e-K	.
8FJ)	.	8d-J)	.
=	=	=	=
*	*	*^	*
(8.E-L	4.AA-	(4e-	4.c	.
16FK	.	.	.	.
8E-J)	.	8a-)	.	.
*v	*v	*	*	*
*	*v	*v	*
=	=	=
4C 4G	4e- 4cc	.
*clefG2	*	*
*^	*^	*
(8e- 8g	[8c	8gg~	(8cc 8ee-	.
=	=	=	=	=
8.fL 8.an	4.c]	4.gg~	8.ddL 8.ff	.
16e-K 16g	.	.	16ccK 16ee-	.
8fJ) 8a	.	.	8ddJ) 8ff	.
*clefF4	*	*	*	*
=	=	=	=	=
([4.g	(4c 4e-	([4.gg	(4cc 4ee-	.
.	8B-) 8d	.	8b-) 8dd	.
*v	*v	*	*	*
*	*v	*v	*
=	=	=
*-	*-	*-
!!!system-decoration: {(s1,s2)}
